icons/server.svg

<?xml version="1.0" encoding="UTF-8" standalone="no"?>
<!-- Created with Inkscape (http://www.inkscape.org/) -->

<svg
   width="1500mm"
   height="1500mm"
   viewBox="0 0 1500 1500"
   version="1.1"
   id="svg5"
   xml:space="preserve"
   inkscape:export-filename="pleroma.svg"
   inkscape:export-xdpi="96"
   inkscape:export-ydpi="96"
   inkscape:version="1.2.1 (9c6d41e410, 2022-07-14)"
   sodipodi:docname="server.svg"
   xmlns:inkscape="http://www.inkscape.org/namespaces/inkscape"
   xmlns:sodipodi="http://sodipodi.sourceforge.net/DTD/sodipodi-0.dtd"
   xmlns="http://www.w3.org/2000/svg"
   xmlns:svg="http://www.w3.org/2000/svg"><sodipodi:namedview
     id="namedview7"
     pagecolor="#393939"
     bordercolor="#000000"
     borderopacity="0.24705882"
     inkscape:showpageshadow="2"
     inkscape:pageopacity="0"
     inkscape:pagecheckerboard="0"
     inkscape:deskcolor="#3c3c3c"
     inkscape:document-units="mm"
     showgrid="false"
     inkscape:zoom="0.125"
     inkscape:cx="2348"
     inkscape:cy="2712"
     inkscape:window-width="1920"
     inkscape:window-height="1009"
     inkscape:window-x="-8"
     inkscape:window-y="-8"
     inkscape:window-maximized="1"
     inkscape:current-layer="layer1" /><defs
     id="defs2" /><g
     inkscape:label="Layer 1"
     inkscape:groupmode="layer"
     id="layer1"><circle
       r="0"
       style="fill:none;stroke:#000000;stroke-width:110.653;stroke-miterlimit:4;stroke-dasharray:none;stroke-opacity:1"
       cy="1221.2555"
       cx="840.45007"
       id="path3713" /><path
       d="M 107.14283,1232.1431 H 964.28572 V 1125 H 107.14283 Z m 0,-428.57165 H 964.28572 V 696.42855 H 107.14283 Z M 1419.6428,1178.5714 c 0,-44.3637 -35.9933,-80.3572 -80.3571,-80.3572 -44.3638,0 -80.3572,35.9934 -80.3572,80.3572 0,44.3638 35.9934,80.3571 80.3572,80.3571 44.3638,0 80.3571,-35.9933 80.3571,-80.3571 z M 107.14283,374.99995 H 964.28572 V 267.85735 H 107.14283 Z m 1312.49997,375.0002 c 0,-44.3641 -35.9933,-80.3571 -80.3571,-80.3571 -44.3638,0 -80.3572,35.993 -80.3572,80.3571 0,44.3638 35.9934,80.3572 80.3572,80.3572 44.3638,0 80.3571,-35.9934 80.3571,-80.3572 z m 0,-428.5715 c 0,-44.3638 -35.9933,-80.3572 -80.3571,-80.3572 -44.3638,0 -80.3572,35.9934 -80.3572,80.3572 0,44.3638 35.9934,80.3571 80.3572,80.3571 44.3638,0 80.3571,-35.9933 80.3571,-80.3571 z M 1500,1017.8572 v 321.4285 H -1.5e-5 v -321.4285 z m 0,-428.57135 v 321.4286 H -1.5e-5 v -321.4286 z m 0,-428.5715 v 321.4286 H -1.5e-5 v -321.4286 z"
       id="path75670"
       style="fill:#ffffff;stroke-width:0.837053" /></g></svg>

<?xml version="1.0" encoding="UTF-8"?>
<!-- Created with Inkscape (http://www.inkscape.org/) -->
<svg id="svg5" width="1500mm" height="1500mm" version="1.1" viewBox="0 0 1500 1500" xml:space="preserve" xmlns="http://www.w3.org/2000/svg"><g id="layer1"><circle id="path3713" cx="840.45" cy="1221.3" r="0" fill="none" stroke="#000" stroke-width="110.65"/><path id="path75670" d="m107.14 1232.1h857.14v-107.14h-857.14zm0-428.57h857.14v-107.14h-857.14zm1312.5 375c0-44.364-35.993-80.357-80.357-80.357s-80.357 35.993-80.357 80.357 35.993 80.357 80.357 80.357 80.357-35.993 80.357-80.357zm-1312.5-803.57h857.14v-107.14h-857.14zm1312.5 375c0-44.364-35.993-80.357-80.357-80.357s-80.357 35.993-80.357 80.357c0 44.364 35.993 80.357 80.357 80.357s80.357-35.993 80.357-80.357zm0-428.57c0-44.364-35.993-80.357-80.357-80.357s-80.357 35.993-80.357 80.357 35.993 80.357 80.357 80.357 80.357-35.993 80.357-80.357zm80.357 696.43v321.43h-1500v-321.43zm0-428.57v321.43h-1500v-321.43zm0-428.57v321.43h-1500v-321.43z" fill="#fff" stroke-width=".83705"/></g></svg>
